X:1
T:Howard E. Smith
T:James Rowe
T:Since Jesus Touched Me
%%score { ( 1 3 ) | ( 2 4 ) }
L:1/8
M:3/4
K:Bb
V:1 treble 
V:3 treble 
V:2 bass 
V:4 bass 
V:1
 z"^Solo"{/x} F GF | D3 F GF | A3 A B=B | c3 =B c^c | d3 d ed | B3 B cB | %6
w: I've lost all|love for plea\- sures|vain, And vain de\-|sires no hold ob\-|tain, For, bless His|name, I've ceased to|
w: What world\- ly|things so much I|sought, To\- day I|shun and count as|naught; While things e\-|ter\- nal and sub\-|
w: From such a|Friend I can\- not|roam, His hand will|lead me safe\- ly|home; In life, in|death, His name a\-|
 !fermata!G3"^rit."[Q:1/4=120]"^Allegretto" B A[Q:1/4=112]"^Moderato"G | %7
w: rove, Since Je\- sus|
w: lime I crave and|
w: dore, And trust and|
[Q:1/4=72]"^Adagio" F3[Q:1/4=60]"^Ballad" B[Q:1/4=56]"^Grave" B[Q:1/4=48]"^Largo"A | %8
w: touched me with His|
w: sigh for all the|
w: love Him ev\- er\-|
 B3"^Chorus"[Q:1/4=120]"^Allegretto" d fe | d3 B cB | A3 c ed | c3 G AG | F3 F Bc | d3 B cd | %14
w: love. Since Je\- sus|touched me with His|love, I've kept my|eyes on things a\-|bove; I've had a|song the whole day|
w: time. * * *||||||
w: more. * * *||||||
[Q:1/4=48]"^Largo" !fermata!e3"^rit."[Q:1/4=120]"^Allegretto" B[Q:1/4=112]"^Moderato" AG | %15
w: long, Since Je\- sus|
w: |
w: |
[Q:1/4=96]"^Andante" F3[Q:1/4=72]"^Adagio" d[Q:1/4=60]"^Ballad" d>[Q:1/4=56]"^Ballad"c | %16
w: touched me with His|
w: |
w: |
[Q:1/4=48]"^Largo" B3 z z2 |] %17
w: love.|
w: |
w: |
V:2
 x4 | [B,,,B,,]2 [D,F,B,]2 [D,,D,]2 | [C,,C,]2 [F,CF]2 z2 | [G,,,G,,]2 [F,A,E]2 [F,A,E]2 | %4
 [B,,,B,,]2 [B,,F,B,] z z2 | [B,,,B,,]2 [F,B,D]2 [D,,D,]2 | [E,,E,]2 [E,B,E]2 z2 | D,6 | %8
 [B,,B,]3 B,, B,,B,, | B,,3 B,, B,,B,, | F,3 F, F,F, | F,3 F, F,F, | B,,3 B,, B,,B,, | %13
 B,,3 D, C,B,, | !fermata!E,3 E, E,E, | F,3 F, F,>F, | B,,3 z z2 |] %17
V:3
 x4 | x6 | x6 | x6 | F3 z z2 | x6 | x6 | F4 E2 | D3 F FF | F3 F FF | E3 E FF | E3 E EE | D3 D DE | %13
 F3 F FF | G3 G FE | F3 F F>E | D3 z z2 |] %17
V:4
 x4 | x6 | x6 | x6 | x6 | x6 | x6 | [B,D]4 C2 | B,3 B, DC | B,3 D DD | C3 A, CB, | A,3 A, CB, | %12
 B,3 B, F,F, | B,3 B, F,F, | B,3 B, A,B, | B,3 B, A,>A, | B,3 z z2 |] %17

